svg/logo/airdrop_fill.svg

<?xml version="1.0" encoding="UTF-8"?>
<svg width="24px" height="24px" viewBox="0 0 24 24" version="1.1" xmlns="http://www.w3.org/2000/svg" xmlns:xlink="http://www.w3.org/1999/xlink">
    <title>airdrop_fill</title>
    <g id="Icon" stroke="none" stroke-width="1" fill="none" fill-rule="evenodd">
        <g id="Logo" transform="translate(-624.000000, -240.000000)">
            <g id="airdrop_fill" transform="translate(624.000000, 240.000000)">
                <path d="M24,0 L24,24 L0,24 L0,0 L24,0 Z M12.5935,23.2578 L12.5819,23.2595 L12.5109,23.295 L12.4919,23.2987 L12.4767,23.295 L12.4057,23.2595 C12.3958,23.2564 12.387,23.259 12.3821,23.2649 L12.378,23.2758 L12.3609,23.7031 L12.3659,23.7235 L12.3769,23.7357 L12.4805,23.8097 L12.4953,23.8136 L12.5071,23.8097 L12.6107,23.7357 L12.6233,23.7197 L12.6267,23.7031 L12.6096,23.2758 C12.6076,23.2657 12.601,23.2593 12.5935,23.2578 Z M12.8584,23.1453 L12.8445,23.1473 L12.6598,23.2397 L12.6499,23.2499 L12.6472,23.2611 L12.6651,23.6906 L12.6699,23.7034 L12.6784,23.7105 L12.8793,23.8032 C12.8914,23.8069 12.9022,23.803 12.9078,23.7952 L12.9118,23.7812 L12.8777,23.1665 C12.8753,23.1546 12.8674,23.147 12.8584,23.1453 Z M12.143,23.1473 C12.1332,23.1424 12.1222,23.1453 12.1156,23.1526 L12.1099,23.1665 L12.0758,23.7812 C12.0751,23.7927 12.0828,23.8019 12.0926,23.8046 L12.1083,23.8032 L12.3092,23.7105 L12.3186,23.7024 L12.3225,23.6906 L12.3404,23.2611 L12.3372,23.2485 L12.3278,23.2397 L12.143,23.1473 Z" id="MingCute" fill-rule="nonzero"></path>
                <path d="M12,4.5 C7.85786,4.5 4.5,7.85786 4.5,12 C4.5,14.934 6.18453,17.4773 8.64606,18.7105 C9.38674,19.0815 9.68638,19.9828 9.31531,20.7235 C8.94425,21.4641 8.04301,21.7638 7.30233,21.3927 C3.86497,19.6707 1.5,16.1129 1.5,12 C1.5,6.20101 6.20101,1.5 12,1.5 C17.799,1.5 22.5,6.20101 22.5,12 C22.5,16.1129 20.135,19.6707 16.6977,21.3927 C15.957,21.7638 15.0557,21.4641 14.6847,20.7235 C14.3136,19.9828 14.6133,19.0815 15.3539,18.7105 C17.8155,17.4773 19.5,14.934 19.5,12 C19.5,7.85786 16.1421,4.5 12,4.5 Z M12,8.5 C10.067,8.5 8.5,10.067 8.5,12 C8.5,13.368 9.28464,14.5555 10.4353,15.132 C11.176,15.5031 11.4756,16.4043 11.1046,17.145 C10.7335,17.8857 9.83226,18.1853 9.09158,17.8142 C6.96508,16.7489 5.5,14.5469 5.5,12 C5.5,8.41015 8.41015,5.5 12,5.5 C15.5899,5.5 18.5,8.41015 18.5,12 C18.5,14.5469 17.0349,16.7489 14.9084,17.8142 C14.1677,18.1853 13.2665,17.8857 12.8954,17.145 C12.5244,16.4043 12.824,15.5031 13.5647,15.132 C14.7154,14.5555 15.5,13.368 15.5,12 C15.5,10.067 13.933,8.5 12,8.5 Z M9.5,12 C9.5,10.6193 10.6193,9.5 12,9.5 C13.3807,9.5 14.5,10.6193 14.5,12 C14.5,12.9809 13.9348,13.8271 13.1192,14.2357 C12.7807,14.4053 12.3993,14.5 12,14.5 C11.6007,14.5 11.2193,14.4053 10.8808,14.2357 C10.0652,13.8271 9.5,12.9809 9.5,12 Z" id="形状" fill="#09244B"></path>
            </g>
        </g>
    </g>
</svg>

<svg xmlns="http://www.w3.org/2000/svg" width="24" height="24"><g fill="none" fill-rule="evenodd"><path d="M24 0v24H0V0h24ZM12.594 23.258l-.012.002-.071.035-.02.004-.014-.004-.071-.036c-.01-.003-.019 0-.024.006l-.004.01-.017.428.005.02.01.013.104.074.015.004.012-.004.104-.074.012-.016.004-.017-.017-.427c-.002-.01-.009-.017-.016-.018Zm.264-.113-.014.002-.184.093-.01.01-.003.011.018.43.005.012.008.008.201.092c.012.004.023 0 .029-.008l.004-.014-.034-.614c-.003-.012-.01-.02-.02-.022Zm-.715.002a.023.023 0 0 0-.027.006l-.006.014-.034.614c0 .012.007.02.017.024l.015-.002.201-.093.01-.008.003-.011.018-.43-.003-.012-.01-.01-.184-.092Z"/><path fill="#09244B" d="M12 4.5a7.5 7.5 0 0 0-3.354 14.21 1.5 1.5 0 1 1-1.344 2.683A10.5 10.5 0 0 1 1.5 12C1.5 6.201 6.201 1.5 12 1.5S22.5 6.201 22.5 12a10.5 10.5 0 0 1-5.802 9.393 1.5 1.5 0 0 1-1.344-2.683A7.5 7.5 0 0 0 12 4.5Zm0 4a3.5 3.5 0 0 0-1.565 6.632 1.5 1.5 0 0 1-1.343 2.682 6.5 6.5 0 1 1 5.817 0 1.5 1.5 0 1 1-1.344-2.682A3.5 3.5 0 0 0 12 8.5ZM9.5 12a2.5 2.5 0 1 1 5 0 2.5 2.5 0 0 1-5 0Z"/></g></svg>
